!!!!SEGMENT: pl-kk--kk-i-3--035-001_anonim--virginitatis-kyrie.krn
!!!cenid: 15xx:643
!!!COM: Anonim
!!!COM-rismID: pe30004985
!!!CDT:
!!!CNT:
!!!OPR: [Virginitatis]
!!!OTL: Kyrie
!!!OMV: 001
!!!PDT:
!!!AGN:
!!!YEC: Copyright 2022 Narodowy Instytut Fryderyka Chopina (https://polishscores.org)
!!!YEM: License CC-BY-4.0 (https://creativecommons.org/licenses/by/4.0)
!!!SMS-siglum: PL-Kk
!!!SMS-shelfmark: Kk.I.3
!!!SMS-shelfwork: 035-001 M
!!!SMS-variant:
!!!SMS-altvar:
!!!NIFC-rismSourceID: 1001145493
!!!NIFC-rismChildID: 1001145537
!!!NIFC-islandoraID: pl-kk:1170
!!!URL-pdf-islandora: https://repozytorium.nifc.pl/islandora/object/pl-kk%3A1170/datastream/PDF/view
!!!URL-scan: https://polish.musicsources.pl/pl/lokalizacje/galeria/rekopisy/5919 @EN{Scan on Polish Music Sources Website} @PL{Skany w portalu Dziedzictwo Muzyki Polskiej w otwartym dostępie}
!!!IIIF:
!!!ONB-nifc: UWAGA: Discantus (s. 108r-109r, skan 0110-0111), Tenor (s. 81r-v, skan 0253-0254), Bassus (s. 104r-105r, skan 0407-0408)
!!!OMD:
!!!AIN: 1 bass 1 tenor 1 vox
!!!key: C
**kern	**text	**text	**kern	**text	**text	**kern	**text	**text
*part3	*	*	*part2	*	*	*part1	*	*
*staff3	*	*	*staff2	*	*	*staff1	*	*
*I"[Bassus]	*	*	*I"[Tenor]	*	*	*I"[Discantus]	*	*
*I'B	*	*	*I'T	*	*	*I'S	*	*
*Ibass	*	*	*Itenor	*	*	*Ivox	*	*
*ICvox	*	*	*ICvox	*	*	*ICvox	*	*
*clefF4	*	*	*clefC4	*	*	*clefC3	*	*
*k[]	*	*	*k[]	*	*	*k[]	*	*
*C:	*	*	*C:	*	*	*C:	*	*
*M2/1	*	*	*M2/1	*	*	*M2/1	*	*
*met(C|)	*	*	*met(C|)	*	*	*met(C|)	*	*
=1-	=1-	=1-	=1-	=1-	=1-	=1-	=1-	=1-
1G	Ki-	.	1G	Ky-	.	1d	Ky-	.
*lig	*	*	*lig	*	*	*lig	*	*
1D	-ri-	.	1A	-ri-	.	1d	-ri-	.
=2-	=2-	=2-	=2-	=2-	=2-	=2-	=2-	=2-
*col	*	*	*	*	*	*col	*	*
2.GG/	-e	.	1B	.	.	2.B/	.	.
*Xlig	*	*	*Xlig	*	*	*Xlig	*	*
4AA/	.	.	.	.	.	4c/	.	.
*Xcol	*	*	*	*	*	*Xcol	*	*
2.BB/	.	.	1B	-e	.	1d	-e	.
4C/	.	.	.	.	.	.	.	.
=3-	=3-	=3-	=3-	=3-	=3-	=3-	=3-	=3-
1D	vir-	fons	1A	vir-	fons	1d	vir-	.
2.C/	-gi-	bo-	1c	-gi-	bo-	2G/	-gi-	fons
*	*	*	*	*	*	*2\right	*	*
.	.	.	.	.	.	2.g\	.	bo-
*custos:E	*	*	*	*	*	*	*	*
4D/	.	-ni-	.	.	.	.	.	.
=4-	=4-	=4-	=4-	=4-	=4-	=4-	=4-	=4-
!LO:LB:g=original	!	!	!	!	!	!	!	!
2.E/	-ni-	-ta-	1c	-ni-	-ni-	.	.	.
.	.	.	.	.	.	4f\	.	.
.	.	.	.	.	.	2e/	.	.
4F/	-ta-	.	.	.	.	.	.	.
*	*	*	*lig	*	*	*	*	*
1G	.	.	1B	-ta-	-ta-	1d	-ni-	-ni-
=5-	=5-	=5-	=5-	=5-	=5-	=5-	=5-	=5-
*lig	*	*	*	*	*	*	*	*
1D	.	.	1A	.	.	1d	-ta-	-ta-
*	*	*	*Xlig	*	*	*	*	*
*	*	*	*	*	*	*custos:c	*	*
1E	.	.	1G	-tis	-tis	1B	-tis	-tis
*Xlig	*	*	*	*	*	*	*	*
=6-	=6-	=6-	=6-	=6-	=6-	=6-	=6-	=6-
!	!	!	!	!	!	!LO:LB:g=original	!	!
2.AA/	-tis	-tis	1A	a-	pa-	2.c/	a-	pa-
4BB/	.	.	.	.	.	4d/	-ma-	-ter
2C/	a-	pa-	1A	-ma-	-ter	2e\	-tor	.
2D/	-ma-	-ter	.	.	.	2f\	.	.
=7-	=7-	=7-	=7-	=7-	=7-	=7-	=7-	=7-
2E/	-tor	in-	1G	-tor	in-	2g\	.	in-
2C/	in-	-ge-	.	.	.	1e	in-	-ge-
*	*	*	*custos:E	*	*	*	*	*
1D	-cli-	-ni-	1F	in-	-ge-	.	.	.
.	.	.	.	.	.	1d\	-cli-	-ni-
=8-	=8-	=8-	=8-	=8-	=8-	=8-	=8-	=8-
!	!	!	!LO:LB:g=original	!	!	!	!	!
1AA,	-te	-te	1E	-cli-	-ni-	.	.	.
.	.	.	.	.	.	2c/	-te	-te
1A	.	a	1D	-te	-te	1.d	.	.
=9-	=9-	=9-	=9-	=9-	=9-	=9-	=9-	=9-
*2\right	*	*	*	*	*	*	*	*
*custos:F	*	*	*	*	*	*	*	*
2A\	fa-	qvo	1D	fa-	a	.	.	.
1F	-ctor	bo-	.	.	.	4c/	fa-	a
.	.	.	.	.	.	4B/	.	.
.	.	.	1A	-ctor	quo	4A/	-ctor	qvo
.	.	.	.	.	.	4B/	.	.
4E/	et	-na	.	.	.	4c/	.	bo-
4D/	.	.	.	.	.	4d/	.	.
=10-	=10-	=10-	=10-	=10-	=10-	=10-	=10-	=10-
2C/	.	.	1A	et	bo-	2e\	et	-na
2D/	.	.	.	.	.	2f\	cre-	cu-
1E	cre-	cun-	1G	cre-	-na	1g	-a-	-ncta
=11-	=11-	=11-	=11-	=11-	=11-	=11-	=11-	=11-
*	*	*	*	*	*	*custos:d	*	*
1D	-a-	-cta	1A	-a-	cun-	1f	.	.
!	!	!	!	!	!	!LO:LB:g=original	!	!
2GG/	-tor	.	1B	-tor	-cta	2d/	-tor	pro-
1G\	Ma-	pro-	.	.	.	2g\	Ma-	-ce-
=12-	=12-	=12-	=12-	=12-	=12-	=12-	=12-	=12-
.	.	.	1c	Ma-	pro-	2e/	-ri-	-dunt
2F/	-ri-	-ce-	.	.	.	2f\	-e	.
*	*	*	*lig	*	*	*	*	*
2G\	-e	-dunt	1B	-ri-	-ce-	2d/	.	.
2GG/	.	.	.	.	.	2g\	.	.
=13-	=13-	=13-	=13-	=13-	=13-	=13-	=13-	=13-
2AA/	.	.	1A	-e	.	1f	e-	.
2BB/	e-	.	.	.	.	.	.	.
*	*	*	*Xlig	*	*	*	*	*
1C	.	.	1G	e-	-dunt	4e\	.	.
.	.	.	.	.	.	4d/	.	.
.	.	.	.	.	.	4c/	.	.
.	.	.	.	.	.	4B/	.	.
=14-	=14-	=14-	=14-	=14-	=14-	=14-	=14-	=14-
*custos:E	*	*	*	*	*	*	*	*
1D	.	.	1F	-lei-	.	2A/	.	.
.	.	.	.	.	.	1d	.	.
*	*	*	*lig	*	*	*	*	*
!LO:PB:g=original	!	!	!	!	!	!	!	!
1E	.	.	1G	.	.	.	.	.
.	.	.	.	.	.	2c/	.	.
=15-	=15-	=15-	=15-	=15-	=15-	=15-	=15-	=15-
1D	.	.	1A	.	.	1d	.	.
*	*	*	*Xlig	*	*	*	*	*
2E/	.	.	0G	.	.	2B/	.	.
2C/	.	.	.	.	.	1e\	.	.
=16-	=16-	=16-	=16-	=16-	=16-	=16-	=16-	=16-
1G	-lei-	.	.	.	.	.	.	.
.	.	.	.	.	.	2d/	-lei-	.
*	*	*	*custos:E	*	*	*custos:B	*	*
!LO:N:vis=0	!	!	!LO:N:vis=0	!	!	!	!	!
1C;>	-son	.	1E;>	-son	.	1el;<	-son	.
=17-	=17-	=17-	=17-	=17-	=17-	=17-	=17-	=17-
*lig	*	*	*	*	*	*lig	*	*
!	!	!	!LO:LB:g=original	!	!	!LO:LB:g=original	!	!
1E	Cri-	.	0E	Cri-	.	1B	Cri-	.
1AA	.	.	.	.	.	1c	.	.
*Xlig	*	*	*	*	*	*Xlig	*	*
=18-	=18-	=18-	=18-	=18-	=18-	=18-	=18-	=18-
*	*	*	*lig	*	*	*	*	*
1D	.	.	1F	.	.	1A	.	.
2BB/	.	.	1D	.	.	1d	-ste	.
2D/	.	.	.	.	.	.	.	.
*	*	*	*Xlig	*	*	*	*	*
=19-	=19-	=19-	=19-	=19-	=19-	=19-	=19-	=19-
2C/	-ste	.	1G	-ste	.	2e\	.	.
2E/	a-	v-	.	.	.	1g	a-	v-
*custos:C	*	*	*	*	*	*	*	*
1D	-gi-	-ni-	1A	a-	v-	.	.	.
.	.	.	.	.	.	2f\	-gi-	-ni-
=20-	=20-	=20-	=20-	=20-	=20-	=20-	=20-	=20-
!LO:LB:g=original	!	!	!	!	!	!	!	!
1C	-ge	-ce	1c	-gi-	-ni-	1g	-ge	-ce
2r	.	.	1c	-ge	-ce	1e	gi-	de-
2AA/	gi-	de-	.	.	.	.	.	.
=21-	=21-	=21-	=21-	=21-	=21-	=21-	=21-	=21-
2.C/	-gas	-i	1c	gi-	de-	2e\	-gas	-i
.	.	.	.	.	.	1g	for-	pa-
4D/	.	.	.	.	.	.	.	.
2E/	.	.	1c	-gas	-i	.	.	.
2F/	.	pa-	.	.	.	4f\	.	-tris
.	.	.	.	.	.	4e\	.	.
=22-	=22-	=22-	=22-	=22-	=22-	=22-	=22-	=22-
*	*	*	*lig	*	*	*	*	*
1G	for-	.	1B	for-	pa-	1d	-tis	ge-
1D	-tis	-tris	1A	.	.	1d	ge-	-ni-
*	*	*	*Xlig	*	*	*	*	*
=23-	=23-	=23-	=23-	=23-	=23-	=23-	=23-	=23-
1E	.	.	1G	-tis	-tris	2B/	-mi-	-te
.	.	.	.	.	.	1e	-ne	.
1F	ge-	ge-	1A	ge-	ge-	.	.	.
.	.	.	.	.	.	2d/	.	.
=24-	=24-	=24-	=24-	=24-	=24-	=24-	=24-	=24-
1E	-mi-	-ni-	1B	-mi-	-ni-	1e	.	que
*	*	*	*	*	*	*custos:f	*	*
1E	-ne	-te	1B	-ne	-te	1e	qvi	de
=25-	=25-	=25-	=25-	=25-	=25-	=25-	=25-	=25-
*	*	*	*custos:G	*	*	*	*	*
!	!	!	!	!	!	!LO:LB:g=original	!	!
1D	.	qvem	1D	qui	qvem	1f	pro	vir-
!	!	!	!LO:LB:g=original	!	!	!	!	!
2C/	qvi	.	1G	pro	de	2e\	.	-gi-
2BB/	pro	de	.	.	.	2d/	ho-	-ne
=26-	=26-	=26-	=26-	=26-	=26-	=26-	=26-	=26-
*custos:A	*	*	*	*	*	*	*	*
1AA	ho-	vir-	1A	ho-	vir-	1c	-mi-	.
!LO:LB:g=original	!	!	!	!	!	!	!	!
1A	-mi-	-gi-	1c	-mi-	-gi-	2.c/	-ne	na-
.	.	.	.	.	.	4d/	.	-sci-
=27-	=27-	=27-	=27-	=27-	=27-	=27-	=27-	=27-
2E/	-ne	ne	1c	-ne	-ne	2e\	ho-	-tu-
2.F/	ho-	na-	.	.	.	2.c/	-mo	-ru(m)
.	.	.	1c	ho-	nas-	.	.	.
4E/	.	sci-	.	.	.	4d/	.	.
2.C/	-mo	-tu-	.	.	.	2.e\	si-	mun-
=28-	=28-	=28-	=28-	=28-	=28-	=28-	=28-	=28-
.	.	.	1c	-mo	-ci-	.	.	.
4D/	.	.	.	.	.	4f\	-ne	.
4E/	.	.	.	.	.	1g	.	-do
4F/	.	.	.	.	.	.	.	.
*	*	*	*lig	*	*	*	*	*
1G	si-	.	1B	si-	-tu-	.	.	.
.	.	.	.	.	.	1d\	vi-	.
=29-	=29-	=29-	=29-	=29-	=29-	=29-	=29-	=29-
1D	-ne	-rum	1A	.	.	.	.	.
.	.	.	.	.	.	2d/	-ri-	mi-
*	*	*	*Xlig	*	*	*	*	*
1E	.	.	1G	-ne	-ru(m)	2B/	-li	-ri-
.	.	.	.	.	.	2c/	.	-fi-
=30-	=30-	=30-	=30-	=30-	=30-	=30-	=30-	=30-
1D	.	.	1A	vi-	mun-	2d/	.	.
*	*	*	*	*	*	*custos:e	*	*
.	.	.	.	.	.	2f\	.	.
!	!	!	!	!	!	!LO:PB:g=original	!	!
2r	.	.	1A	-ri-	-do	2e/	.	.
2D/	vi-	mu(n)-	.	.	.	1f\	se-	-fi-
=31-	=31-	=31-	=31-	=31-	=31-	=31-	=31-	=31-
2E/	-ri-	-do	1G	-li	mi-	.	.	.
2C/	[-li]	mi-	.	.	.	1e	-mi-	-ce
*custos:AA	*	*	*	*	*	*	*	*
1D	se-	-ri-	1F	se-	-ri-	.	.	.
.	.	.	.	.	.	1d\	-ne	san-
=32-	=32-	=32-	=32-	=32-	=32-	=32-	=32-	=32-
!LO:LB:g=original	!	!	!	!	!	!	!	!
1AA	-mi-	-fi-	1E	-mi-	-fi-	.	.	.
.	.	.	.	.	.	2c/	pro-	-cti
1A	-ne	-ce	1D	-ne	-ce	1.d	-di-	pre-
=33-	=33-	=33-	=33-	=33-	=33-	=33-	=33-	=33-
*	*	*	*custos:A	*	*	*	*	*
2A\	pro-	san-	1D	pro-	san-	.	.	.
1F	-di-	-cti	.	.	.	4c/	-sti	-di-
.	.	.	.	.	.	4B/	.	-xe-
!	!	!	!LO:LB:g=original	!	!	!	!	!
.	.	.	1A	-di-	-cti	4A/	.	.
.	.	.	.	.	.	4B/	.	.
4E/	-sti	.	.	.	.	4c/	de	.
4D/	.	.	.	.	.	4d/	.	.
=34-	=34-	=34-	=34-	=34-	=34-	=34-	=34-	=34-
2C/	de	.	1A	-sti	pre-	2e/	.	.
2D/	.	pre-	.	.	.	2f\	ven-	-runt
1E	ven-	-di-	1G	de	-di-	1g	-tre	.
=35-	=35-	=35-	=35-	=35-	=35-	=35-	=35-	=35-
1D	-tre	-xe-	1A	ven-	-xe-	1f	.	.
*	*	*	*	*	*	*custos:g	*	*
2GG/	.	-runt	1B	-tre	-ru(n)t	2d/	.	pro-
!	!	!	!	!	!	!LO:LB:g=original	!	!
1G\	Ma-	pro-	.	.	.	2g\	Ma-	-phe-
=36-	=36-	=36-	=36-	=36-	=36-	=36-	=36-	=36-
.	.	.	1c	Ma-	.	2e\	-ne	.
2F/	-ni	-phe	.	.	.	2f\	.	-te
*	*	*	*lig	*	*	*	*	*
2G\	.	.	1B	-ne	.	2d/	.	.
2GG/	.	.	.	.	.	2g\	.	.
=37-	=37-	=37-	=37-	=37-	=37-	=37-	=37-	=37-
2AA/	.	.	1A	.	.	1f	.	.
*custos:C	*	*	*	*	*	*	*	*
2BB/	.	.	.	.	.	.	.	.
*	*	*	*Xlig	*	*	*	*	*
!LO:LB:g=original	!	!	!	!	!	!	!	!
1C	.	.	1G	.	.	4e\	.	.
.	.	.	.	.	.	4d/	.	.
.	.	.	.	.	.	4c/	.	.
.	.	.	.	.	.	4B/	.	.
=38-	=38-	=38-	=38-	=38-	=38-	=38-	=38-	=38-
1D	.	.	1F	e-	.	2A/	.	.
.	.	.	.	.	.	1d	.	.
1E	.	.	1G	-leij-	.	.	.	.
.	.	.	.	.	.	2c/	e-	.
=39-	=39-	=39-	=39-	=39-	=39-	=39-	=39-	=39-
1D	.	.	1A	.	.	1d	-lei-	.
2E/	.	.	0G	.	.	2B/	.	.
2C/	.	.	.	.	.	2c/	.	.
=40-	=40-	=40-	=40-	=40-	=40-	=40-	=40-	=40-
1G	.	.	.	.	.	1d	.	.
*	*	*	*custos:c	*	*	*	*	*
*	*	*	*	*	*	*custos:g	*	*
!	!	!	!	!	!	!LO:N:vis=0	!	!
!LO:N:vis=0	!	!	!LO:N:vis=0	!	!	!	!	!
1C;>	.	.	1E;>	-son	.	1e;<	-son	.
=41-	=41-	=41-	=41-	=41-	=41-	=41-	=41-	=41-
*lig	*	*	*lig	*	*	*	*	*
!	!	!	!LO:PB:g=original	!	!	!LO:LB:g=original	!	!
1C	Ky-	.	1c	Ki-	.	0g	Ki-	.
1G	.	.	1B	.	.	.	.	.
*Xlig	*	*	*Xlig	*	*	*	*	*
=42-	=42-	=42-	=42-	=42-	=42-	=42-	=42-	=42-
*	*	*	*lig	*	*	*	*	*
2C/	-ri-	.	1c	-ri-	.	2e\	-ri-	.
2F/	-e	.	.	.	.	1f	.	.
*custos:G	*	*	*	*	*	*	*	*
2D/	.	.	1d	.	.	.	.	.
!LO:PB:g=original	!	!	!	!	!	!	!	!
2G/	.	.	.	.	.	1g\	-e	.
*	*	*	*Xlig	*	*	*	*	*
=43-	=43-	=43-	=43-	=43-	=43-	=43-	=43-	=43-
1D	.	.	1d	-e	.	.	.	.
.	.	.	.	.	.	2f\	qui	.
2.G\	qui	i-	1B	qui	i-	1g	.	i-
4F/	.	-gnis	.	.	.	.	.	.
=44-	=44-	=44-	=44-	=44-	=44-	=44-	=44-	=44-
4D/	in-	.	1d	in-	-gnis	1f	.	-gnis
4E/	.	di-	.	.	.	.	.	.
4F/	-car-	.	.	.	.	.	.	.
4G/	.	.	.	.	.	.	.	.
2A\	.	.	1c	-car-	di-	1e	.	.
2AA/	.	.	.	.	.	.	.	.
=45-	=45-	=45-	=45-	=45-	=45-	=45-	=45-	=45-
2BB/	.	.	1B	-na-	-vi-	2r	.	.
2GG/	.	.	.	.	.	1d	in-	di-
1D	-na-	-vi-	1A	-tus	-ne	.	.	.
.	.	.	.	.	.	2d/	-car-	-vi-
=46-	=46-	=46-	=46-	=46-	=46-	=46-	=46-	=46-
1GG	-tus	-ne	1G	.	.	2d/	-na-	-ne
.	.	.	.	.	.	2e/	-t(us)	pe-
2r	.	.	1B	de	pe-	2d/	de	-cto-
2G\	de	pe-	.	.	.	1g\	Ma-	-ra
=47-	=47-	=47-	=47-	=47-	=47-	=47-	=47-	=47-
*custos:D	*	*	*	*	*	*	*	*
1A	Ma-	-cto-	1c	Ma-	-cto-	.	.	.
.	.	.	.	.	.	2f\	-ri-	no-
!LO:LB:g=original	!	!	!	!	!	!	!	!
2D/	-ri-	-ra	1d	-ri-	-ra	2.g\	-e	-stra
2.G\	-e	.	.	.	.	.	.	.
*	*	*	*	*	*	*custos:d	*	*
.	.	.	.	.	.	4f\	.	.
=48-	=48-	=48-	=48-	=48-	=48-	=48-	=48-	=48-
!	!	!	!	!	!	!LO:LB:g=original	!	!
.	.	.	1B	-e	no-	2d/	ven-	suc-
4F/	.	.	.	.	.	.	.	.
2E/	.	no-	.	.	.	1g	-tre	-cen-
1D	.	-stra	1d	ven-	-stra	.	.	.
.	.	.	.	.	.	2f\	na-	-de
=49-	=49-	=49-	=49-	=49-	=49-	=49-	=49-	=49-
*	*	*	*custos:B	*	*	*	*	*
2r	.	.	1c	-tre	suc-	1g	-tus	.
2C/	ven-	suc-	.	.	.	.	.	.
*	*	*	*lig	*	*	*	*	*
!	!	!	!LO:LB:g=original	!	!	!	!	!
2D/	-tre	-cen-	1B	na-	-cen-	2r	.	.
2E/	.	.	.	.	.	1e\	ſub	vt
=50-	=50-	=50-	=50-	=50-	=50-	=50-	=50-	=50-
1F	na-	.	1A	.	.	.	.	.
.	.	.	.	.	.	2d/	.	di-
*	*	*	*Xlig	*	*	*	*	*
1E	-tus	.	1G	-tus	-de	1e	no-	-gni
=51-	=51-	=51-	=51-	=51-	=51-	=51-	=51-	=51-
1D	.	-de	1A	ſub	vt	1f	.	pa-
2r	.	.	1A	no-	di-	2e\	.	.
2AA/	sub	vt	.	.	.	2c/	-stra	.
=52-	=52-	=52-	=52-	=52-	=52-	=52-	=52-	=52-
2BB/	no-	di-	1G	-stra	-gni	2d/	.	.
2C/	-stra	-gni	.	.	.	1e	.	.
1D	.	pa-	1F	spe-	pa-	.	.	.
.	.	.	.	.	.	1d\	spe-	.
=53-	=53-	=53-	=53-	=53-	=53-	=53-	=53-	=53-
*custos:A	*	*	*	*	*	*	*	*
1AA	spe-	-ri-	1E	-ci-	-ri-	.	.	.
.	.	.	.	.	.	2c/	-ci-	-ri-
*	*	*	*	*	*	*custos:d	*	*
!LO:LB:g=original	!	!	!	!	!	!	!	!
1A	-ci-	-ter	1D	-e	-ter	1d,	-e	-ter
=54-	=54-	=54-	=54-	=54-	=54-	=54-	=54-	=54-
!	!	!	!	!	!	!LO:LB:g=original	!	!
2A\	-e	te	1D	cor-	de-	2d/	cor-	de-
1F	cor-	lav-	.	.	.	4c/	-pus	-scan-
.	.	.	.	.	.	4B/	.	.
.	.	.	1A	-pus	-scan-	4A/	.	-da-
.	.	.	.	.	.	4B/	.	.
4E/	-pus	-da-	.	.	.	4c/	.	.
4D/	.	-re	.	.	.	4d/	.	.
=55-	=55-	=55-	=55-	=55-	=55-	=55-	=55-	=55-
2C/	.	.	1A	e-	-de-	2e\	e-	-re
2D/	ple-	.	.	.	.	2f\	-le-	poſ-
1E	-gi-	.	1G	-le-	-re	1g	-gis-	-si-
=56-	=56-	=56-	=56-	=56-	=56-	=56-	=56-	=56-
1D	-sti	.	1A	-gis-	pos-	1f	-ti	-mus
2GG/	.	poſ-	1B	-ti	-si-	2d\	.	.
1G\	Ma-	-si-	.	.	.	2g\	.	ſem-
=57-	=57-	=57-	=57-	=57-	=57-	=57-	=57-	=57-
*	*	*	*custos:B	*	*	*	*	*
.	.	.	1c	ma-	-mus	2e\	Ma	-per
2F/	-ri-	-mu(s)	.	.	.	2f\	.	.
*	*	*	*lig	*	*	*	*	*
!	!	!	!LO:LB:g=original	!	!	!	!	!
2G/	-e	sem-	1B	-ri-	sem-	2d/	.	.
*	*	*	*	*	*	*custos:f	*	*
2GG/	.	-per	.	.	.	2g\	.	.
=58-	=58-	=58-	=58-	=58-	=58-	=58-	=58-	=58-
!	!	!	!	!	!	!LO:PB:g=original	!	!
2AA/	.	.	1A	.	.	1f	.	.
*custos:C	*	*	*	*	*	*	*	*
2BB/	.	.	.	.	.	.	.	.
*	*	*	*Xlig	*	*	*	*	*
!LO:LB:g=original	!	!	!	!	!	!	!	!
1C	.	.	1G	-e	-per	4e\	.	.
.	.	.	.	.	.	4d/	.	.
.	.	.	.	.	.	4c/	.	.
.	.	.	.	.	.	4B/	.	.
=59-	=59-	=59-	=59-	=59-	=59-	=59-	=59-	=59-
1D	.	.	1F	e-	.	2A/	.	.
.	.	.	.	.	.	1d	e-	.
*	*	*	*lig	*	*	*	*	*
1E	.	.	1G	-leij-	.	.	.	.
.	.	.	.	.	.	2c/	-lei-	.
=60-	=60-	=60-	=60-	=60-	=60-	=60-	=60-	=60-
1D	.	.	1A	.	.	1d	.	.
*	*	*	*Xlig	*	*	*	*	*
2E/	.	.	0G	-son	.	2B/	.	.
2C/	.	.	.	.	.	2c/	.	.
=61-	=61-	=61-	=61-	=61-	=61-	=61-	=61-	=61-
1G	.	.	.	.	.	1d	-son	.
!	!	!	!LO:N:vis=0	!	!	!LO:N:vis=0	!	!
1Cl\;<	.	.	1E;>	.	.	1e;>	.	.
=-	=-	=-	=-	=-	=-	=-	=-	=-
*-	*-	*-	*-	*-	*-	*-	*-	*-
!!!system-decoration: [(s1,s2,s3)]
!!!RDF**kern: < = below
!!!RDF**kern: > = above
!!!RDF**kern: l = terminal long
!!!ENC: Anastazja Marusiak
!!!END: 2022-01-16
!!!ENC: Marta Chmielewska
!!!END: 2022-01-25
